X: 3
T: Catharsis
R: reel
M: 4/4
L: 1/8
K: Amin
EAAG EAAG|EGAB cABG|EGGD EGDG|edcd cABG|
EAAG EAAG|EGAB cABd|edcd cBAG|1 EAAG A2 A2:|2 EAAG ABcd||
eAAd AAcA|ADBD ABcd|eGGd GDBD|GDBD ABcd|
eAAd AAcA|ADBD ABcd|edcd cBAG|1 EAAG ABcd:|2 EAAG A4||


Tune 703	Setting 703

